public/images/hashed/ad2fc267ae1a178e353cbd746bb22bb8.svg

<?xml version="1.0" encoding="UTF-8"?>
<svg width="80px" height="80px" viewBox="0 0 80 80" version="1.1" xmlns="http://www.w3.org/2000/svg" xmlns:xlink="http://www.w3.org/1999/xlink">
    <!-- Generator: Sketch 64 (93537) - https://sketch.com -->
    <title>Icon-Architecture/64/Arch_AWS-Elemental-MediaStore_64</title>
    <desc>Created with Sketch.</desc>
    <defs>
        <linearGradient x1="0%" y1="100%" x2="100%" y2="0%" id="linearGradient-1">
            <stop stop-color="#C8511B" offset="0%"></stop>
            <stop stop-color="#FF9900" offset="100%"></stop>
        </linearGradient>
    </defs>
    <g id="Icon-Architecture/64/Arch_AWS-Elemental-MediaStore_64" stroke="none" stroke-width="1" fill="none" fill-rule="evenodd">
        <g id="Icon-Architecture-BG/64/Media-Services" fill="url(#linearGradient-1)">
            <rect id="Rectangle" x="0" y="0" width="80" height="80"></rect>
        </g>
        <path d="M29,52.3813232 L24,54.881439 L19,52.3813232 L19,46.6170563 L24,44.1169406 L29,46.6170563 L29,52.3813232 Z M31,52.9993518 L31,45.9990277 C31,45.6200102 30.786,45.2739942 30.447,45.1049863 L24.447,42.1048474 C24.166,41.9638409 23.834,41.9638409 23.553,42.1048474 L17.553,45.1049863 C17.214,45.2739942 17,45.6200102 17,45.9990277 L17,52.9993518 C17,53.3783694 17.214,53.7243854 17.553,53.8943933 L23.553,56.8945322 C23.693,56.9645354 23.847,56.999537 24,56.999537 C24.153,56.999537 24.307,56.9645354 24.447,56.8945322 L30.447,53.8943933 C30.786,53.7243854 31,53.3783694 31,52.9993518 L31,52.9993518 Z M52,58.0695866 L52,47.5731006 L62,41.7398305 L62,52.419325 L52,58.0695866 Z M41,64.2898745 L41,54.8194361 L48.88,59.8396685 L41,64.2898745 Z M30,33.1984351 L30,21.747905 L39,27.0681513 L38.997,32.9984259 L40.997,32.9994259 L40.999,28.2482059 L41,28.2482059 L50,33.5684522 L50,45.0519839 L46.916,42.8408815 L45.75,44.4669568 L50,47.5130978 L50,58.1795916 L41,52.4493264 L41,39.9987499 C41,39.6387333 40.811,39.308718 40.49,39.1287097 L30,33.1984351 Z M28,21.9279133 L28,32.0683828 L19.03,26.9981481 L28,21.9279133 Z M40,15.1475994 L48.875,20.1648317 L40.387,25.5670818 L31.189,20.12783 L40,15.1475994 Z M52,33.6164545 L62,28.616223 L62,39.4237233 L52,45.2579934 L52,33.6164545 Z M50.851,21.2778832 L60.872,26.9441456 L51.042,31.8593731 L51.04,31.8583731 L42.32,26.7081346 L42.319,26.7081346 L50.851,21.2778832 Z M63.49,26.1281078 L40.49,13.1275059 C40.189,12.957498 39.811,12.957498 39.51,13.1275059 L16.51,26.1281078 C16.189,26.3081161 16,26.6381314 16,26.9981481 L16,38.9987036 L18,38.9987036 L18,28.7082272 L39,40.5787768 L39,64.2398722 L30.512,59.1856382 L29.488,60.9037178 L39.489,66.8599935 L39.49,66.8589935 L39.49,66.8599935 L39.5,66.8599935 C39.65,66.9499977 39.83,67 40,67 C40.17,67 40.34,66.9599981 40.49,66.869994 L50.89,60.9897217 L51.89,60.4196954 L63.49,53.8693921 C63.811,53.6893838 64,53.3593685 64,52.9993518 L64,26.9981481 C64,26.6381314 63.811,26.3081161 63.49,26.1281078 L63.49,26.1281078 Z" id="AWS-Elemental-MediaStore_Icon_64_Squid" fill="#FFFFFF"></path>
    </g>
</svg>

<svg xmlns="http://www.w3.org/2000/svg" width="80" height="80"><defs><linearGradient id="a" x1="0%" x2="100%" y1="100%" y2="0%"><stop offset="0%" stop-color="#C8511B"/><stop offset="100%" stop-color="#F90"/></linearGradient></defs><g fill="none" fill-rule="evenodd"><path fill="url(#a)" d="M0 0h80v80H0z"/><path fill="#FFF" d="m29 52.381-5 2.5-5-2.5v-5.764l5-2.5 5 2.5v5.764ZM31 53v-7a.999.999 0 0 0-.553-.894l-6-3a.998.998 0 0 0-.894 0l-6 3a.999.999 0 0 0-.553.894v7c0 .38.214.725.553.895l6 3a1.001 1.001 0 0 0 .894 0l6-3c.339-.17.553-.516.553-.895Zm21 5.07V47.574l10-5.833v10.68l-10 5.65Zm-11 6.22v-9.47l7.88 5.02L41 64.29ZM30 33.2V21.747l9 5.32-.003 5.93 2 .001.002-4.75H41l9 5.32v11.483l-3.084-2.211-1.166 1.626L50 47.513V58.18l-9-5.73V39.998a.99.99 0 0 0-.51-.87L30 33.199Zm-2-11.271v10.14l-8.97-5.07 8.97-5.07Zm12-6.78 8.875 5.017-8.488 5.402-9.198-5.44L40 15.148Zm12 18.468 10-5v10.808l-10 5.834V33.616Zm-1.149-12.338 10.021 5.666-9.83 4.915h-.002l-8.72-5.15h-.001l8.532-5.431Zm12.639 4.85-23-13a1.005 1.005 0 0 0-.98 0l-23 13a.99.99 0 0 0-.51.87v12h2v-10.29l21 11.87V64.24l-8.488-5.054-1.024 1.718 10.001 5.956.001-.001v.001h.01c.15.09.33.14.5.14.17 0 .34-.04.49-.13l10.4-5.88 1-.57 11.6-6.55A.99.99 0 0 0 64 53V26.997a.99.99 0 0 0-.51-.87Z"/></g></svg>
